ubereats/img/ic_pin.svg

<svg width="14" height="16" viewBox="0 0 14 16" fill="none" xmlns="http://www.w3.org/2000/svg">
<path fill-rule="evenodd" clip-rule="evenodd" d="M7 4.25C5.48122 4.25 4.25 5.48122 4.25 7C4.25 8.51878 5.48122 9.75 7 9.75C8.51878 9.75 9.75 8.51878 9.75 7C9.75 5.48122 8.51878 4.25 7 4.25ZM5.75 7C5.75 6.30964 6.30964 5.75 7 5.75C7.69036 5.75 8.25 6.30964 8.25 7C8.25 7.69036 7.69036 8.25 7 8.25C6.30964 8.25 5.75 7.69036 5.75 7Z" fill="#262626"/>
<path fill-rule="evenodd" clip-rule="evenodd" d="M11.7747 2.26607C9.13826 -0.422024 4.86174 -0.422024 2.22532 2.26607C-0.40844 4.95146 -0.40844 9.30337 2.22532 11.9888L2.25156 12.0155L7 15.9767L11.7484 12.0155L11.7747 11.9888C14.4084 9.30337 14.4084 4.95146 11.7747 2.26607ZM3.29623 3.31639C5.34459 1.22787 8.65541 1.22787 10.7038 3.31639C12.7569 5.4098 12.7654 8.80833 10.7291 10.9125L7 14.0233L3.27092 10.9125C1.23463 8.80833 1.24306 5.4098 3.29623 3.31639Z" fill="#262626"/>
</svg>

<svg width="14" height="16" fill="none" xmlns="http://www.w3.org/2000/svg"><path fill-rule="evenodd" clip-rule="evenodd" d="M7 4.25a2.75 2.75 0 1 0 0 5.5 2.75 2.75 0 0 0 0-5.5zM5.75 7a1.25 1.25 0 1 1 2.5 0 1.25 1.25 0 0 1-2.5 0z" fill="#262626"/><path fill-rule="evenodd" clip-rule="evenodd" d="M11.775 2.266a6.662 6.662 0 0 0-9.55 0c-2.633 2.685-2.633 7.037 0 9.723l.027.026L7 15.977l4.748-3.962.027-.026c2.633-2.686 2.633-7.038 0-9.723zm-8.479 1.05a5.162 5.162 0 0 1 7.408 0c2.053 2.094 2.061 5.492.025 7.596L7 14.024l-3.73-3.11c-2.035-2.105-2.027-5.503.026-7.597z" fill="#262626"/></svg>
